svg/fluentui-system-icons/ic_fluent_frame_16_filled.svg

<svg width="16" height="16" viewBox="0 0 16 16" fill="none" xmlns="http://www.w3.org/2000/svg">
<path d="M3.5 1C3.77614 1 4 1.22386 4 1.5V3H12V1.5C12 1.22386 12.2239 1 12.5 1C12.7761 1 13 1.22386 13 1.5V3H14.5C14.7761 3 15 3.22386 15 3.5C15 3.77614 14.7761 4 14.5 4H13V12H14.5C14.7761 12 15 12.2239 15 12.5C15 12.7761 14.7761 13 14.5 13H13V14.5C13 14.7761 12.7761 15 12.5 15C12.2239 15 12 14.7761 12 14.5V13H4V14.5C4 14.7761 3.77614 15 3.5 15C3.22386 15 3 14.7761 3 14.5V13H1.5C1.22386 13 1 12.7761 1 12.5C1 12.2239 1.22386 12 1.5 12H3V4H1.5C1.22386 4 1 3.77614 1 3.5C1 3.22386 1.22386 3 1.5 3H3V1.5C3 1.22386 3.22386 1 3.5 1Z" fill="#212121"/>
</svg>

<svg xmlns="http://www.w3.org/2000/svg" width="16" height="16"><path d="M3.5 1a.5.5 0 0 1 .5.5V3h8V1.5a.5.5 0 0 1 1 0V3h1.5a.5.5 0 0 1 0 1H13v8h1.5a.5.5 0 0 1 0 1H13v1.5a.5.5 0 0 1-1 0V13H4v1.5a.5.5 0 0 1-1 0V13H1.5a.5.5 0 0 1 0-1H3V4H1.5a.5.5 0 0 1 0-1H3V1.5a.5.5 0 0 1 .5-.5Z"/></svg>
